X: 4
T: The Sailor On The Rock
R: reel
M: 4/4
L: 1/8
K: Dmaj
defd BAFB|AD (3FED FA~A2|defd BAFA|1 Beed egfe:|2 Beed e2df||a2ba fdd2|fbba bafa|afbf afdB|1 ABdf e2df:|2 ABdf e2 (3ABc||


Tune 765	Setting 28463

